X:1
T:Title
%%score { 1 | 2 }
L:1/8
Q:1/4=100
M:4/4
K:Eb
V:1 treble nm="Grand Piano"
V:2 bass 
V:1
 G2 G>[FA] [GB]2 [GB]2 | [Ac]2 [GB]2 [EGB]2 [DFA]2 | [B,DF]2 [B,DF]>[B,EG] [DFA]2 [DFA]2 | %3
w: Harry~Dixon~Loes * * * *|||
 [FAd]2 [DAc]2 [EGB]4 | [B,EG]2 [B,EG]>[B,FA] [GB]2 [GB]2 | [Ac]2 [GB]2 [FB]2 [DF]2 | %6
w: |||
 [FB]2 c>c d2 [Ge]2 |[M:5/4] [Fd]2 [Ec]2 [DB]6 |[M:4/4] [EG]>[FA] [GB]2 [Ge]3 [Ac] | %9
w: |||
 [GB]>G E>F G2 B2 | F3 G A2 [DF]2 | [EG]3 [FA] [GB]2 [EG]2 | [EG]>[FA] [GB]2 [Ge]3 [Ac] | %13
w: ||||
 [GB]>G E>F G2 [GB]2 | [Ad]>[Ac] [GB]>[Ac] [EG]2 [DF]2 | E6 z2 |] %16
w: |||
V:2
 [E,B,E]2 [E,B,E]>[E,B,] [E,E]2 [E,E]2 | [E,E]2 [E,E]2 B,,2 B,,2 | B,,2 B,,>B,, B,,2 B,,2 | %3
 B,,2 B,,2 E,4 | E,2 E,>E, [E,E]2 [E,E]2 | [E,E]2 [E,E]2 [F,D]2 [F,B,]2 | %6
 [D,B,]2[K:treble] [F,B,F]>[F,B,F] [B,F]2[K:bass] [E,B,]2 |[M:5/4] [F,B,]2 [F,=A,]2 [B,,B,]6 | %8
[M:4/4] [E,B,]>[E,B,] [E,E]2 [E,B,]3 [E,E] | [E,E]>[E,B,E] [G,B,]>[F,B,D] [E,B,E]2 [E,G,E]2 | %10
 [A,B,D]3 [G,B,D] [F,B,D]2 [B,,B,]2 | [E,B,]3 [E,B,] [E,E]2 [E,B,]2 | %12
 [E,B,]>[E,B,] [E,E]2 [E,B,]3 [E,E] | [E,E]>[E,B,E] [G,B,]>[F,B,D] [E,B,E]2 [E,B,]2 | %14
 [B,,B,]>[B,,B,] [B,,B,]>[B,,B,] [B,,B,]2 [B,,A,]2 | [E,G,]6 z2 |] %16

